X: 3165
T: Becca's
R: reel
M: 4/4
K: Amajor
cd|:"A" eece "E"dEEd|"A"cBAc "E"BEEc|"A"eece "E"dEEd|"A"ccBA "E" B2 cd|
"A"eece "E"dEEc|EEBE "A"cEAd|"F#m" EFAc "D"dAFd|"A" c/d/e"E"BG "A"A2 cd:|
|:"A"cAce "D"fedc|"E"Bcde "A"cAA/A/A|"F#m" cAFC "D"DFAB|"A"Acdc "E"B2EE|
"A"EAce "D"dcBA|"E"GABc "F#m"BAA2|"A"EAGA "D"DAGA|"A"CBAG A2 cd:|

